!! 00053] TT[KA
!! Kassette von Frau Li Wenzhen, Peking - Zum Gesangsheft
!!!OTL: Ke laidao jia le
!!!ARE: Guizhou
!! Ethnic Group: Miao
!! MM,, Seite 29, 2
!!!SCT: C0791
!!!YEM: Copyright 1995, estate of Helmut Schaffrath.
**kern
*ICvox
*Ivox
!! Mixed meters:  3/4; 2/4; 4/4
*M3/4
*k[f#]
*G:
{8dd
8b
4.dd
8gg
=1
16dd
16b
[4.g
4g]
=2
4b
4cc
4cc#
=3
*M2/4
2dd
=4
4bb
4r}
=5
*M3/4
{8dd
8b
4.dd
8gg
=6
16dd
16b
[4.g
4g]
=7
4b
4b-
4a
=8
2g
4e
=9
*M4/4
2.d
4r}
=10
*M3/4
{8dd
8b
4.dd
8gg
=11
16dd
16b
[4.g
4g_
=12
*M4/4
2.g]
4e
=13
1d}
=14
*M2/4
{8dd
8b
8dd
8b
=15
4g
16e
16d
8r
=16
4r
4r}
=17
{8g
8dd
8b
8dd
=18
*M3/4
8b
[8g
2g]}
=19
*M2/4
{8dd
8b
8dd
8b
=20
4g
16e
16d
8r}
=21
*M3/4
{8dd
8b
8dd
8b
8dd
8dd
=22
*M2/4
8dd
8b
8dd
8b
=23
2g}
=24
{2g
=25
*M3/4
4b
4b-
4a
=26
*M4/4
2.g
4e
=27
1d}
==
!!!AGN: Shangge, Feige. Yingke
!! Die Stuecke sind meist uebersteuert, also verzerrt.
!!    +++Die Noten sind richtig, obwohl der Gesang hier nicht
!!    uebereinstimmt.
!!    Mehrere Verzierungen, Glissandi. Tempowechsel ab T.15 (04=48 bzw. 90)
!!    Phr.2, T.2.1 analog zu Phr. 1/3 geaendert.
!!!ONB: ESAC (Essen Associative Code) Database: CHINA
!!!AMT: irregular
!!!AIN: vox
!!!EED: Helmut Schaffrath
!!!EEV: 1.0
*-
!!!ONB: Tied note syntax fixed by Craig Sapp, 2004/05/03/
